app/images/icons/dialogue.svg

<svg width="24" height="24" xmlns="http://www.w3.org/2000/svg" fill-rule="evenodd" clip-rule="evenodd"><path d="M20 15c0 .552-.448 1-1 1s-1-.448-1-1 .448-1 1-1 1 .448 1 1m-3 0c0 .552-.448 1-1 1s-1-.448-1-1 .448-1 1-1 1 .448 1 1m-3 0c0 .552-.448 1-1 1s-1-.448-1-1 .448-1 1-1 1 .448 1 1m5.415 4.946c-1 .256-1.989.482-3.324.482-3.465 0-7.091-2.065-7.091-5.423 0-3.128 3.14-5.672 7-5.672 3.844 0 7 2.542 7 5.672 0 1.591-.646 2.527-1.481 3.527l.839 2.686-2.943-1.272zm-13.373-3.375l-4.389 1.896 1.256-4.012c-1.121-1.341-1.909-2.665-1.909-4.699 0-4.277 4.262-7.756 9.5-7.756 5.018 0 9.128 3.194 9.467 7.222-1.19-.566-2.551-.889-3.967-.889-4.199 0-8 2.797-8 6.672 0 .712.147 1.4.411 2.049-.953-.126-1.546-.272-2.369-.483m17.958-1.566c0-2.172-1.199-4.015-3.002-5.21l.002-.039c0-5.086-4.988-8.756-10.5-8.756-5.546 0-10.5 3.698-10.5 8.756 0 1.794.646 3.556 1.791 4.922l-1.744 5.572 6.078-2.625c.982.253 1.932.407 2.85.489 1.317 1.953 3.876 3.314 7.116 3.314 1.019 0 2.105-.135 3.242-.428l4.631 2-1.328-4.245c.871-1.042 1.364-2.384 1.364-3.75"/></svg>

<svg width="24" height="24" xmlns="http://www.w3.org/2000/svg" fill-rule="evenodd" clip-rule="evenodd"><path d="M20 15a1 1 0 1 1-2 0 1 1 0 0 1 2 0m-3 0a1 1 0 1 1-2 0 1 1 0 0 1 2 0m-3 0a1 1 0 1 1-2 0 1 1 0 0 1 2 0m5.415 4.946c-1 .256-1.989.482-3.324.482-3.465 0-7.091-2.065-7.091-5.423 0-3.128 3.14-5.672 7-5.672 3.844 0 7 2.542 7 5.672 0 1.591-.646 2.527-1.481 3.527l.839 2.686-2.943-1.272zM6.042 16.571l-4.389 1.896 1.256-4.012C1.788 13.114 1 11.79 1 9.756 1 5.479 5.262 2 10.5 2c5.018 0 9.128 3.194 9.467 7.222A9.266 9.266 0 0 0 16 8.333c-4.199 0-8 2.797-8 6.672 0 .712.147 1.4.411 2.049-.953-.126-1.546-.272-2.369-.483M24 15.005c0-2.172-1.199-4.015-3.002-5.21L21 9.756C21 4.67 16.012 1 10.5 1 4.954 1 0 4.698 0 9.756a7.71 7.71 0 0 0 1.791 4.922L.047 20.25l6.078-2.625c.982.253 1.932.407 2.85.489 1.317 1.953 3.876 3.314 7.116 3.314 1.019 0 2.105-.135 3.242-.428l4.631 2-1.328-4.245A5.886 5.886 0 0 0 24 15.005"/></svg>
